X:475
T: Matt Peoples'
S: "Traditional Irish Music" (K.Tweed)
Z: B.Black
L: 1/8
M: 4/4
R: reel
K: Ador
^G|A2 eA cAeA|B2 gB (3cBA GB|A2 eA cAeA|BAGB A3 :|
^g|ae e2 agef|gB B2 g3 ^g|ae e2 aged|(3Bcd gd BGBd|
ae e2 agef|gB B2 g3 ^g|afge fded|(3Bcd gd BAGB ||
